X:75
T: Teresa Halpin's
S: "The Roche Collection of Traditional Irish Music" [I/56/138]
L: 1/8
M: 4/4
R: reel
K: G
DE | G2 GF GABd | e2 de gedB | e2 de gedB | A2 AG AcBA |
G2 GF GABd | e2 de gedB | egde BcAB | G2 GG G2 ||
ef | g2 gg a2 aa | bagf edBd | e2 de gedB | A2 AG AcBA |
g2 gg a2 aa | bagf edBd | (3ege (3ded (3BcB (3ABA | G2 GG G2 |]
